src/icons/solid/globe.svg

<svg width="20" height="20" viewBox="0 0 20 20" fill="none" xmlns="http://www.w3.org/2000/svg">
<path fill-rule="evenodd" clip-rule="evenodd" d="M10 18C14.4183 18 18 14.4183 18 10C18 5.58172 14.4183 2 10 2C5.58172 2 2 5.58172 2 10C2 14.4183 5.58172 18 10 18ZM4.33179 8.02741C4.70542 6.95361 5.37558 6.01864 6.24421 5.32056C6.51209 5.72966 6.97449 5.99991 7.50001 5.99991C8.32844 5.99991 9.00001 6.67148 9.00001 7.49991V7.99991C9.00001 9.10448 9.89545 9.99991 11 9.99991C12.1046 9.99991 13 9.10448 13 7.99991C13 7.05979 13.6487 6.27118 14.5228 6.05719C15.4428 7.11161 16 8.49069 16 9.99992C16 10.3407 15.9716 10.6748 15.917 11.0001H15C13.8954 11.0001 13 11.8955 13 13.0001V15.1973C12.1175 15.7078 11.0928 15.9999 9.99992 15.9999V14C9.99992 12.8954 9.10448 12 7.99992 12C6.89535 12 5.99992 11.1046 5.99992 10C5.99992 9.00849 5.27841 8.1855 4.33179 8.02741Z" fill="#4A5568"/>
</svg>

<svg xmlns="http://www.w3.org/2000/svg" viewBox="0 0 20 20" fill="currentColor">
  <path fill-rule="evenodd" d="M10 18a8 8 0 100-16 8 8 0 000 16zM4.332 8.027a6.012 6.012 0 011.912-2.706C6.512 5.73 6.974 6 7.5 6A1.5 1.5 0 019 7.5V8a2 2 0 004 0 2 2 0 011.523-1.943A5.977 5.977 0 0116 10c0 .34-.028.675-.083 1H15a2 2 0 00-2 2v2.197A5.973 5.973 0 0110 16v-2a2 2 0 00-2-2 2 2 0 01-2-2 2 2 0 00-1.668-1.973z" clip-rule="evenodd"/>
</svg>
